lib/brands/logos/solr.svg

<svg xmlns="http://www.w3.org/2000/svg" fill="none" aria-hidden="true" viewBox="0 0 145 80"><g id="Solr"><g id="Group"><g id="Union"><path fill="#201F26" d="M84.9046 71.2489C84.4499 71.3622 84.0496 71.4484 83.7158 71.504C83.3643 71.5624 82.9829 71.6214 82.5724 71.6798C82.1944 71.7334 81.8206 71.7612 81.4609 71.7612C80.5537 71.7612 79.886 71.4606 79.4185 70.8417C78.9021 70.1605 78.651 69.484 78.651 68.7728V29.1881H75.947V68.7728C75.947 70.2582 76.4159 71.5725 77.3414 72.6772C78.3002 73.8247 79.6661 74.4055 81.4012 74.4055C81.9454 74.4055 82.4855 74.3736 83.0073 74.3112C83.5108 74.2508 83.9634 74.1904 84.3685 74.13C84.7824 74.0676 85.2615 73.9739 85.7935 73.8518L86.7102 73.6401L85.5065 71.0982L84.9046 71.2489Z"/><path fill="#201F26" d="M25.9399 51.377C27.8941 51.7068 29.6923 52.3033 31.2835 53.1501C32.9147 54.0186 34.2474 55.2238 35.2456 56.7301C36.2566 58.2582 36.7689 60.1894 36.7689 62.47C36.7689 64.7208 36.222 66.637 35.1438 68.1685C34.094 69.6593 32.7335 70.8936 31.0982 71.8368C29.4887 72.7657 27.7123 73.4341 25.8191 73.8256C23.9517 74.2103 22.14 74.4058 20.4327 74.4058C16.8425 74.4058 13.6581 73.7292 10.969 72.3945C8.31244 71.0768 6.03454 69.4788 4.20041 67.6433L3.625 67.0679L5.67491 65.2914L6.17364 65.8105C8.03152 67.7444 10.2327 69.2243 12.7149 70.2089C15.2079 71.1996 17.8047 71.7017 20.4327 71.7017C21.9982 71.7017 23.6267 71.5273 25.2722 71.1826C26.8919 70.844 28.3772 70.2917 29.6896 69.5419C30.9741 68.8077 32.0421 67.8421 32.8645 66.6723C33.6605 65.5398 34.0649 64.127 34.0649 62.47C34.0649 60.625 33.6448 59.1268 32.8177 58.0174C31.9627 56.8713 30.8533 55.9573 29.522 55.2998C28.1554 54.6266 26.6327 54.1706 24.9967 53.9447C23.3152 53.7119 21.6799 53.5952 20.1355 53.5952C18.1928 53.5952 16.2827 53.41 14.4574 53.0449C12.5894 52.671 10.914 52.0271 9.4782 51.1314C8.01184 50.2181 6.81623 48.9797 5.92461 47.4516C5.02757 45.914 4.57226 43.9849 4.57226 41.7185C4.57226 39.5594 5.06353 37.7015 6.03047 36.1958C6.98248 34.7159 8.23644 33.5046 9.75776 32.5954C11.2472 31.7058 12.9144 31.0557 14.7119 30.6622C16.4829 30.2754 18.2478 30.08 19.9571 30.08C21.739 30.08 23.3376 30.2143 24.709 30.4803C26.0946 30.7497 27.3547 31.1494 28.456 31.6685C29.5715 32.195 30.5656 32.8593 31.4117 33.6404C32.2409 34.4085 33.0158 35.2981 33.7154 36.286L34.261 37.0562L31.6906 38.1378L31.3418 37.6255C30.7189 36.7108 29.9779 35.9318 29.1393 35.311C28.2884 34.6833 27.3506 34.1764 26.3531 33.8066C25.3373 33.4314 24.2801 33.1647 23.2114 33.014C20.4728 32.632 17.7844 32.7331 15.2391 33.2733C13.7443 33.5908 12.3926 34.1099 11.2214 34.8163C10.0794 35.505 9.13213 36.4333 8.40744 37.576C7.69224 38.7003 7.31225 40.0995 7.27697 41.7348C7.27697 43.5866 7.64746 45.1215 8.37894 46.2791C9.1206 47.4557 10.0909 48.3901 11.2641 49.0578C12.4699 49.7444 13.8562 50.2249 15.387 50.4854C16.9592 50.7541 18.5565 50.8905 20.1355 50.8905C22.0674 50.8905 24.0203 51.0541 25.9399 51.377Z"/><path fill="#201F26" fill-rule="evenodd" d="M61.8482 42.773C63.7285 43.765 65.3631 45.0651 66.708 46.6367C68.0502 48.2075 69.0965 50.0172 69.8178 52.0155C70.5378 54.0139 70.9035 56.0312 70.9035 58.0106C70.9035 60.1962 70.5052 62.3106 69.7201 64.2946C68.9371 66.274 67.8385 68.0518 66.4563 69.5785C65.0687 71.1107 63.4211 72.3497 61.5592 73.259C59.6837 74.175 57.6365 74.6616 55.4746 74.703H55.4461C53.1614 74.6616 51.0403 74.154 49.1424 73.1945C47.2587 72.2432 45.6207 70.9723 44.2737 69.4177C42.9329 67.8699 41.8771 66.0935 41.1354 64.1359C40.3924 62.1769 40.0158 60.1161 40.0158 58.0106C40.0158 55.7829 40.4243 53.6278 41.2291 51.6064C42.0325 49.5877 43.1406 47.7902 44.5228 46.2641C45.9104 44.732 47.56 43.5024 49.4253 42.6108C51.3042 41.7138 53.3344 41.2585 55.4597 41.2585C57.7925 41.2585 59.9422 41.7674 61.8482 42.773ZM50.4207 70.8617C51.9108 71.6162 53.6059 71.9989 55.4597 71.9989C57.3494 71.9989 59.0913 71.5884 60.6377 70.7775C62.2079 69.9551 63.5718 68.866 64.6921 67.5408C65.8171 66.2095 66.6918 64.6882 67.2936 63.0162C67.8941 61.3416 68.1995 59.6567 68.1995 58.0106C68.1995 56.2131 67.867 54.4448 67.2108 52.7552C66.552 51.0635 65.6386 49.5497 64.4953 48.255C63.3546 46.9658 61.9901 45.914 60.4389 45.1289C58.9088 44.3554 57.2334 43.9625 55.4597 43.9625C53.5733 43.9625 51.8335 44.3825 50.2877 45.2103C48.7155 46.0531 47.3496 47.153 46.2273 48.481C45.1016 49.8136 44.2269 51.3356 43.6264 53.0042C43.0252 54.6782 42.7198 56.3624 42.7198 58.0106C42.7938 59.7931 43.1582 61.5736 43.8008 63.2721C44.4386 64.963 45.333 66.4762 46.4587 67.7702C47.5783 69.0588 48.911 70.0983 50.4207 70.8617Z" clip-rule="evenodd"/><path fill="#201F26" d="M92.8597 47.7296C93.923 46.2266 95.1654 44.9712 96.5721 43.9826C98.6946 42.4905 101.232 41.7339 104.114 41.7339H104.871V44.4013L104.152 44.4372C102.656 44.5125 101.279 44.8043 100.059 45.3037C98.8357 45.8038 97.7378 46.479 96.7946 47.3109C95.8515 48.1435 95.0433 49.1396 94.3939 50.2707C93.75 51.3938 93.2343 52.6321 92.8597 53.9526V74.1083H90.1557V41.7339H92.8597V47.7296Z"/></g><path id="Vector" fill="#C7402B" d="M135.204 12.2479L112.812 36.4567L140.954 23.4732C140.121 19.178 138.083 15.3157 135.204 12.2479ZM118.59 5.047C115.488 5.047 112.532 5.66923 109.837 6.79223L106.832 32.1117L121.847 5.28245C120.783 5.12978 119.696 5.047 118.59 5.047ZM141.177 24.8681L114.511 39.7908L139.529 36.8221C140.715 34.0638 141.375 31.0252 141.375 27.832C141.375 26.8264 141.303 25.8391 141.177 24.8681ZM131.346 46.7141C134.325 44.6974 136.799 41.9927 138.546 38.83L115.096 43.4869L131.346 46.7141ZM123.22 5.51859L110.166 33.8108L134.38 11.4145C131.344 8.49337 127.503 6.40275 123.22 5.51859ZM120.495 50.5315C123.017 50.3225 125.424 49.7057 127.647 48.7415L114.511 47.1828L120.495 50.5315ZM97.8209 18.4652C96.7963 20.7336 96.132 23.1974 95.9013 25.7881L99.44 32.1122L97.8209 18.4652ZM107.862 7.72898C104.647 9.44843 101.895 11.9156 99.8338 14.8992L103.136 31.5265L107.862 7.72898Z"/></g></g></svg>

<svg xmlns="http://www.w3.org/2000/svg" fill="none" aria-hidden="true" viewBox="0 0 145 80"><path fill="#201F26" d="M84.905 71.249c-.455.113-.855.2-1.19.255-.35.058-.732.117-1.143.176a7.952 7.952 0 0 1-1.111.081c-.907 0-1.575-.3-2.043-.92-.516-.68-.767-1.357-.767-2.068V29.188h-2.704v39.585c0 1.485.469 2.8 1.394 3.904.96 1.148 2.325 1.728 4.06 1.728.544 0 1.085-.031 1.606-.094.504-.06.956-.12 1.361-.181a19.46 19.46 0 0 0 1.425-.278l.917-.212-1.203-2.542-.602.15ZM25.94 51.377c1.954.33 3.752.926 5.343 1.773a10.757 10.757 0 0 1 3.963 3.58c1.01 1.528 1.523 3.46 1.523 5.74 0 2.25-.547 4.167-1.625 5.698a12.591 12.591 0 0 1-4.046 3.669 17.706 17.706 0 0 1-5.279 1.989c-1.867.384-3.679.58-5.386.58-3.59 0-6.775-.677-9.464-2.012-2.657-1.317-4.934-2.915-6.769-4.75l-.575-.576 2.05-1.777.499.52a18.443 18.443 0 0 0 6.54 4.398 20.82 20.82 0 0 0 7.719 1.493c1.565 0 3.194-.175 4.84-.52 1.619-.338 3.104-.89 4.417-1.64a9.762 9.762 0 0 0 3.174-2.87c.797-1.132 1.2-2.545 1.2-4.202 0-1.845-.42-3.343-1.246-4.453a9.071 9.071 0 0 0-3.296-2.717c-1.367-.673-2.89-1.13-4.525-1.355a35.628 35.628 0 0 0-4.861-.35c-1.943 0-3.853-.185-5.679-.55-1.868-.374-3.543-1.018-4.979-1.914a10.535 10.535 0 0 1-3.553-3.68c-.897-1.537-1.353-3.466-1.353-5.733 0-2.159.492-4.017 1.458-5.522a11.258 11.258 0 0 1 3.728-3.6c1.49-.89 3.156-1.54 4.954-1.934a24.65 24.65 0 0 1 5.245-.582c1.782 0 3.38.134 4.752.4 1.386.27 2.646.67 3.747 1.189a11.69 11.69 0 0 1 2.956 1.971 16.955 16.955 0 0 1 2.303 2.646l.546.77-2.57 1.082-.35-.512a9.547 9.547 0 0 0-2.202-2.315 11.324 11.324 0 0 0-2.786-1.504 15.218 15.218 0 0 0-3.142-.793 23.023 23.023 0 0 0-7.972.26c-1.495.317-2.846.836-4.018 1.542a8.517 8.517 0 0 0-2.814 2.76c-.715 1.124-1.095 2.523-1.13 4.159 0 1.852.37 3.386 1.102 4.544a8.156 8.156 0 0 0 2.885 2.779c1.206.686 2.592 1.167 4.123 1.427 1.572.27 3.17.406 4.748.406 1.932 0 3.885.163 5.805.486Z"/><path fill="#201F26" fill-rule="evenodd" d="M61.848 42.773a16.475 16.475 0 0 1 4.86 3.864 17.262 17.262 0 0 1 3.11 5.379c.72 1.998 1.085 4.015 1.085 5.995 0 2.185-.398 4.3-1.183 6.284a17.335 17.335 0 0 1-3.264 5.284 16.125 16.125 0 0 1-4.897 3.68c-1.875.916-3.922 1.403-6.084 1.444h-.029c-2.285-.041-4.406-.549-6.304-1.508a15.86 15.86 0 0 1-4.868-3.777 17.505 17.505 0 0 1-3.139-5.282 17.21 17.21 0 0 1-1.12-6.125c0-2.228.41-4.383 1.214-6.405.803-2.018 1.912-3.816 3.294-5.342a15.744 15.744 0 0 1 4.902-3.653 13.893 13.893 0 0 1 6.035-1.352c2.332 0 4.482.508 6.388 1.514ZM50.421 70.862c1.49.754 3.185 1.137 5.039 1.137 1.89 0 3.631-.41 5.178-1.221a13.444 13.444 0 0 0 4.054-3.237c1.125-1.331 2-2.853 2.602-4.525.6-1.674.906-3.36.906-5.005a14.45 14.45 0 0 0-.99-5.256 14.968 14.968 0 0 0-2.715-4.5 13.574 13.574 0 0 0-4.056-3.126 10.931 10.931 0 0 0-4.98-1.166c-1.886 0-3.626.42-5.171 1.247a13.85 13.85 0 0 0-4.06 3.271 14.688 14.688 0 0 0-2.602 4.523c-.6 1.674-.906 3.358-.906 5.007a16.866 16.866 0 0 0 1.08 5.261 14.744 14.744 0 0 0 2.659 4.498 12.994 12.994 0 0 0 3.962 3.092Z" clip-rule="evenodd"/><path fill="#201F26" d="M92.86 47.73c1.063-1.503 2.305-2.759 3.712-3.747 2.123-1.492 4.66-2.25 7.542-2.25h.757v2.668l-.719.036c-1.496.076-2.873.367-4.093.867a11.48 11.48 0 0 0-3.264 2.007 11.71 11.71 0 0 0-2.401 2.96 16.4 16.4 0 0 0-1.534 3.682v20.155h-2.704V41.734h2.704v5.996Z"/><path fill="#C7402B" d="m135.204 12.248-22.392 24.209 28.142-12.984a22.717 22.717 0 0 0-5.75-11.225ZM118.59 5.047c-3.102 0-6.058.622-8.753 1.745l-3.005 25.32 15.015-26.83a22.916 22.916 0 0 0-3.257-.235Zm22.587 19.821-26.666 14.923 25.018-2.969a22.704 22.704 0 0 0 1.648-11.954Zm-9.831 21.846a22.899 22.899 0 0 0 7.2-7.884l-23.45 4.657 16.25 3.227ZM123.22 5.519 110.166 33.81l24.214-22.396a22.723 22.723 0 0 0-11.16-5.896Zm-2.725 45.012a22.643 22.643 0 0 0 7.152-1.79l-13.136-1.558 5.984 3.348ZM97.821 18.465a22.64 22.64 0 0 0-1.92 7.323l3.539 6.324-1.619-13.647ZM107.862 7.73a22.895 22.895 0 0 0-8.028 7.17l3.302 16.627 4.726-23.797Z"/></svg>
